public/themes/Gathenhielmska/assets/images/location_icon.svg

<svg fill="none" height="13" viewBox="0 0 13 13" width="13" xmlns="http://www.w3.org/2000/svg"><path d="m11.9873 5.14809c.0863.0653.1295.16326.1295.29387v6.62854c0 .1089-.0324.196-.0971.2613-.0648.0653-.1566.1034-.2753.1142h-3.74094c-.10796 0-.19973-.0381-.2753-.1142-.07558-.0762-.11336-.1633-.11336-.2613v-4.16323c0-.10884-.03239-.20136-.09717-.27755s-.15654-.10885-.2753-.09796h-2.25101c-.10797 0-.19434.03265-.25911.09796-.06478.0653-.10257.15782-.11336.27755v4.16323c0 .1089-.03239.196-.09717.2613s-.15655.1034-.2753.1142h-3.757089c-.107962 0-.194332-.0381-.259109-.1142-.064778-.0762-.102564-.1633-.113361-.2613v-6.62854c0-.13061.048583-.22857.145749-.29387l5.61943-4.604086c.16195-.130612.31849-.130612.46964 0z" fill="#fff"/></svg>

<svg width="13" height="13" viewBox="0 0 13 13" fill="none" xmlns="http://www.w3.org/2000/svg">
<path d="M11.9873 5.14809C12.0736 5.21339 12.1168 5.31135 12.1168 5.44196V12.0705C12.1168 12.1794 12.0844 12.2665 12.0197 12.3318C11.9549 12.3971 11.8631 12.4352 11.7444 12.446H8.00346C7.8955 12.446 7.80373 12.4079 7.72816 12.3318C7.65258 12.2556 7.6148 12.1685 7.6148 12.0705V7.90727C7.6148 7.79843 7.58241 7.70591 7.51763 7.62972C7.45285 7.55353 7.36109 7.52087 7.24233 7.53176H4.99132C4.88335 7.53176 4.79698 7.56441 4.73221 7.62972C4.66743 7.69502 4.62964 7.78754 4.61885 7.90727V12.0705C4.61885 12.1794 4.58646 12.2665 4.52168 12.3318C4.4569 12.3971 4.36513 12.4352 4.24638 12.446H0.489291C0.381329 12.446 0.294959 12.4079 0.230182 12.3318C0.165404 12.2556 0.127618 12.1685 0.116821 12.0705V5.44196C0.116821 5.31135 0.165404 5.21339 0.26257 5.14809L5.882 0.544004C6.04395 0.413392 6.20049 0.413392 6.35164 0.544004L11.9873 5.14809Z" fill="white"/>
</svg>
